!!!OTL: Bauer und Schneider (3-45), S. 133
!!!id: P1017
**kern
*clefG2
*k[f#]
*G:
{4g
=1
2dd
4ee
=2
4.dd
8cc
4b
=3
2b
4a
=4
4g
4g}
=5
{8b
8b
=6
4.b
8a
4g
=7
4g
4f#
4e
=8
4f#
4f#
4e
=9
4d
4d}
=10
{8d
8d
=11
4g
4g
4a
=12
4b
4g
4b
=13
4dd
4dd}
=14
{8ee
8ee
=15
4dd
4dd
8cc
8cc
=16
4b
4g
4a
=17
4g
4g}
==
*-
!!!minrhy: 8
!!!meters: 3/4 ]  ZZ[4
!!!cut: Bauer und Schneider (3-45), S. 133
!!!reg: Lothringen
!!!trd: PINCK, Louis: Verklingende Weisen, Bd3, Metz 1933
!!!rhy1: X_  X__X_  X_.XX_  X__X_  X_X_
!!!rhy2: XX  X_.XX_  X_X_X_  X_X_X_  X_X_
!!!key: P1017  08  G 3/4 ]  ZZ[4
!!!mod: HEPTATONIK IONISCH]  AMBITUS[9
!!!kad: 1-551
!!!akz: 5531_31-7-5_135_531_
!!!fot: 'a__b__c__d__
!!!for: 'a__b__c__d__
!!!fok: '^__\__/__\__
!! PHRAS[AUFTAKTIG]
!!!fkt: Berufslied
!! LOTH VKL
!! PR[9] 2K[4] 2G[19] 3K[8] 3G[2] 4A[2] 4Ü[0] 5A[2] 6K[0] 6G[0]
!! 7K[0] 7G[0] 8A[0] MEHR[0] SI[36] ABS[53] SR[23] SP[13]
!! ST[22] 2k[15] 2g[38] 3k[0] 3g[0] 4d[2] 4ü[0] 5d[0] 6k[0] 6g[0]
!! 7k[0] 7g[0] 8d[0] mehr[0] si[55] dm[-19] sr[53] sp[2]
!! 1F[26] 2F[56] 3F[11] 4F[0] LF[0] 2P[7] 3P[0] 4P[0] TRI[0] DF[4] AB[54]
!! TF[0] U3K[0] U3[0] U4[0] U4Ü[0] U5[0] U6K[0] U6[0] U7K[0] U7[0]
!! N1[11] N2K[0] N2[6] N3K[9] N3[0] N4[17] N4Ü[0] N5[24] N6K[0] N6[15]
!!!n7k: 11] N7[0] O1[6] O2K[0] O2[2] O3K[0] O3[0] HÖ[0
